archdroid-icon-theme/Archdroid-Amber/apps/scalable/google-chrome.svg

<svg height="48" viewBox="0 0 48 48" width="48" xmlns="http://www.w3.org/2000/svg" xmlns:xlink="http://www.w3.org/1999/xlink"><linearGradient id="a" gradientTransform="matrix(.16113666 0 0 .16109493 3.416919 3.446971)" gradientUnits="userSpaceOnUse" x1="164" x2="109" xlink:href="#b" y1="161" y2="217"/><linearGradient id="b" gradientUnits="userSpaceOnUse" x2="0" y1="140" y2="60"><stop offset="0" stop-opacity=".15"/><stop offset=".3" stop-opacity=".06"/><stop offset="1" stop-opacity=".03"/></linearGradient><linearGradient id="c" gradientTransform="matrix(.16113666 0 0 .16109493 3.416919 3.446971)" gradientUnits="userSpaceOnUse" x1="139" x2="147" xlink:href="#b" y1="179" y2="100"/><linearGradient id="d" gradientTransform="matrix(.16113666 0 0 .16109493 3.416919 3.446971)" gradientUnits="userSpaceOnUse" x2="0" xlink:href="#b" y1="140" y2="60"/><ellipse cx="24.042412" cy="24.067122" fill="#fff" rx="17.725033" ry="17.720442"/><ellipse cx="24.042412" cy="24.067122" fill="#3369e8" rx="6.606603" ry="6.604892"/><path d="m40.156077 16.012376a18.047306 18.042632 0 0 0 -31.099375-2.094234l7.25115 12.565404a8.056833 8.054746 0 0 1 7.573423-10.47117" fill="#d50f25"/><path d="m9.056702 13.918142a18.047306 18.042632 0 0 0 13.535479 28.030516l7.573423-12.887594a8.056833 8.054746 0 0 1 -13.857752-2.577518" fill="#009925"/><path d="m22.592181 41.948658a18.047306 18.042632 0 0 0 17.563896-25.936282h-16.274803a8.056833 8.054746 0 0 1 6.28433 13.048689" fill="#eeb211"/><path d="m9.056702 13.918142 7.25115 12.565404a8.056833 8.054746 0 0 1 .322273-5.477227l-7.25115-7.571462" fill="url(#d)"/><path d="m22.592181 41.948658 7.573423-12.887594a8.056833 8.054746 0 0 1 -4.672963 2.738614l-3.222733 10.14898" fill="url(#a)"/><path d="m40.156077 16.012376h-16.274803a8.056833 8.054746 0 0 1 6.28433 3.060804l10.312746-2.577519" fill="url(#c)"/></svg>

<svg height="48" version="1.1" viewBox="0 0 48 48" width="48" xmlns="http://www.w3.org/2000/svg" xmlns:xlink="http://www.w3.org/1999/xlink"><defs><linearGradient id="a" gradientTransform="matrix(.16113666 0 0 .16109493 3.416919 3.446971)" gradientUnits="userSpaceOnUse" x1="164" x2="109" xlink:href="#b" y1="161" y2="217"/><linearGradient id="b" gradientUnits="userSpaceOnUse" x2="0" y1="140" y2="60"><stop offset="0%" stop-opacity=".15"/><stop offset="30%" stop-opacity=".06"/><stop offset="100%" stop-opacity=".03"/></linearGradient><linearGradient id="c" gradientTransform="matrix(.16113666 0 0 .16109493 3.416919 3.446971)" gradientUnits="userSpaceOnUse" x1="139" x2="147" xlink:href="#b" y1="179" y2="100"/><linearGradient id="d" gradientTransform="matrix(.16113666 0 0 .16109493 3.416919 3.446971)" gradientUnits="userSpaceOnUse" x2="0" xlink:href="#b" y1="140" y2="60"/></defs><ellipse cx="24.042412" cy="24.067122" fill="#fff" rx="17.725033" ry="17.720442"/><ellipse cx="24.042412" cy="24.067122" fill="#3369e8" rx="6.606603" ry="6.604892"/><path d="M40.156077 16.012376A18.047306 18.042632 0 0 0 9.056702 13.918142L16.307852 26.483546a8.056833 8.054746 0 0 1 7.573423-10.47117" fill="#d50f25"/><path d="M9.056702 13.918142A18.047306 18.042632 0 0 0 22.592181 41.948658L30.165604 29.061064A8.056833 8.054746 0 0 1 16.307852 26.483546" fill="#009925"/><path d="M22.592181 41.948658A18.047306 18.042632 0 0 0 40.156077 16.012376l-16.274803 0a8.056833 8.054746 0 0 1 6.28433 13.048689" fill="#eeb211"/><path d="M9.056702 13.918142L16.307852 26.483546a8.056833 8.054746 0 0 1  .322273-5.477227L9.378975 13.434857" fill="url(#d)"/><path d="M22.592181 41.948658L30.165604 29.061064A8.056833 8.054746 0 0 1 25.492641 31.799678L22.269908 41.948658" fill="url(#a)"/><path d="m40.156077 16.012376l-16.274803 0a8.056833 8.054746 0 0 1 6.28433 3.060804l10.312746-2.577519" fill="url(#c)"/></svg>
